X:1
T:O Comforter, Gentle and Tender
T:O Comforter, Gentle and Tender
T:Albert Benjamin Simpson
T:Albert Benjamin Simpson, 1897
T:Public Domain Courtesy of the Cyber Hymnal™
T:Public Domain Courtesy of the Cyber Hymnal™
C:Albert Benjamin Simpson
Z:Public Domain
Z:Courtesy of the Cyber Hymnal™
%%score ( 1 2 ) ( 3 4 )
L:1/8
Q:1/4=100
M:6/8
K:G
V:1 treble 
V:2 treble 
V:3 bass 
V:4 bass 
V:1
 D | [DG][DF][DG] [GB][DG]>[EG] | [FA]3 [DG]2 [DB] | E[^DF][EG] [^CA][CG][CE] | D3- D ([B,G][DB]) | %5
w: 1.~O|Com- fort- er, gen- tle and|ten- der, O|ho- ly and heav- en- ly|Dove; * We’re *|
w: 2.~Come|strong as the wind o’er the|o- cean, Or|soft as the breath- ing of|morn, * Sub- *|
w: 3.~O|come as the heart search- ing|fi- re, O|come as the sin cleans- ing|flood; * Con- *|
w: 4.~A-|noint us with glad- ness and|heal- ing; Bap-|tize us with power from on|high; * O *|
 [Gd][G^c][Gd] [Ge][Gd][DB] | [CA]3 [B,G]2 [^A,E] | [B,D][DG][GB] [Fd][FA]>[FB] | G3- G2 || %9
w: yield- ing our hearts in sur-|ren- der, We’re|wait- ing Thy full- ness to|prove. *|
w: du- ing our spir- it’s com-|mo- tion And|cheer- ing when hearts are for-|lorn. *|
w: sume us with ho- ly de-|si- re, And|fill with the full- ness of|God. *|
w: come with Thy fill- ing and|seal- ing, While|low at Thy foot- stool we|lie. *|
"^Refrain" [DG] | [FA]3 D2 D | [DB]3 [DG]2 [GB] | [GA]2 [GA] [GA][GB][GA] | %13
w: We’re|wait- ing, we’re|wait- ing For|Thee, O heav- en- ly|
w: I’m|wait- ing, I’m|wai- ting For|Thee, O heav- en- ly|
w: ||||
w: ||||
 d3- !fermata![Ad]2 [Gd] | [Gd][G^c][Gd] [Ge][Gd][DB] | [CA]3 [B,G]2 [^A,E] | %16
w: Dove; We’re yield-|* ing our hearts to sur-|ren- der, We’re|
w: Dove; I’m yield-|* ing my heart in sur-|ren- der, I’m|
w: |||
w: |||
 [B,D][DG][GB] [Fd][FA]>[FB] | [DG]3 z2 |] %18
w: wait- ing Thy full- ness to|prove.|
w: wait- ing Thy full- ness to|prove.|
w: ||
w: ||
V:2
 D | x6 | x6 | E x5 | D3- D x2 | x6 | x6 | x6 | G3- G2 || x | x3 D2 D | x6 | x6 | F2 G x3 | x6 | %15
 x6 | x6 | x5 |] %18
V:3
 [G,B,] | [G,B,][G,A,][G,B,] [G,D][G,B,]>[E,^C] | (D2 C) [G,B,]2 [G,,G,] | %3
w: ~|~ ~ ~ ~ ~ ~|~ * ~ ~|
 [C,G,][B,,B,][E,B,] [A,,A,][A,,E,][A,,G,] | [D,F,]3- [D,F,] [G,,G,]2 | %5
w: ~ ~ ~ ~ ~ ~|~ * ~|
 [G,B,][G,^A,][G,B,] [C,C][B,,D][G,,G,] | [D,F,]3 [E,G,]2 [^C,G,] | %7
w: ~ ~ ~ ~ ~ ~|~ ~ ~|
 [D,G,][D,B,][D,D] [D,C][D,C]>[D,D] | [G,B,]3- [G,B,]2 || [G,B,] | ([D,D]2 [D,D]) [F,A,]2 [F,A,] | %11
w: ~ ~ ~ ~ ~ ~|~ *|~|waiting, * wait- ing,|
 ([G,,G,][G,,G,][G,,G,]) [G,B,]2 [G,D] | [E,^C]2 [E,C] [A,C][A,D][A,C] | %13
w: waiting~for * * Thee, *||
 D2 B, !fermata![D,C]2 [G,B,] | [G,B,][G,^A,][G,B,] [G,C][G,B,]G, | F,3 [E,G,]2 [^C,G,] | %16
w: |||
 [D,G,][D,B,][D,D] [D,C][D,C]>[D,D] | [G,B,]3 z2 |] %18
w: ||
V:4
 x | x6 | D,3 x3 | x6 | x6 | x6 | x6 | x6 | x5 || x | x6 | x6 | x6 | D,3- x3 | x5 G, | %15
 (D,2 ^D,) x3 | x6 | x5 |] %18

